images/022-protection-1.svg

<svg width="79" height="79" viewBox="0 0 79 79" fill="none" xmlns="http://www.w3.org/2000/svg">
<path d="M77.0075 34.007L69.5307 30.3348C69.709 30.2368 69.8559 30.0904 69.9545 29.9124C70.053 29.7345 70.0993 29.5323 70.0878 29.3292C70.0195 28.4714 69.845 27.6254 69.5684 26.8106C68.9535 25.01 67.0487 23.8585 64.7259 23.8747C63.3615 23.8848 60.8994 23.8941 59.7383 23.8983L57.468 19.7951C55.8624 16.9656 53.5278 13.7324 49.6828 13.7324H49.6323L21.8475 13.9279C18.6915 13.9511 15.9089 16.1462 14.0092 20.1183L11.7034 24.2746C10.5446 24.2808 8.053 24.2933 6.6705 24.3033C4.34371 24.3206 2.46005 25.5002 1.87187 27.3098C1.60736 28.1285 1.44545 28.9769 1.38985 29.8355C1.38378 29.9857 1.40744 30.1358 1.45947 30.2769C1.5115 30.418 1.59087 30.5475 1.69304 30.6579C1.79238 30.7656 1.9121 30.8525 2.04527 30.9135C2.17845 30.9746 2.32242 31.0086 2.46884 31.0137H2.47826L5.79163 30.958C4.34324 32.157 3.42903 34.0603 3.44508 36.2525C3.44547 36.2956 3.44871 36.3387 3.4548 36.3813L5.18015 49.2476C5.20491 50.1378 5.53549 50.9924 6.11631 51.6675C6.69713 52.3427 7.49274 52.7972 8.36931 52.9547L8.40017 57.0241C8.40195 57.3437 8.46826 57.6596 8.59513 57.9529C8.722 58.2463 8.90681 58.5109 9.13848 58.7311C9.36912 58.9522 9.64123 59.1256 9.93915 59.2411C10.2371 59.3567 10.5549 59.4121 10.8743 59.4043H10.8935L15.1311 59.4109C15.4551 59.4102 15.7758 59.3456 16.0748 59.2207C16.3738 59.0958 16.6452 58.9132 16.8735 58.6832C17.1018 58.4533 17.2824 58.1805 17.4051 57.8806C17.5278 57.5807 17.5901 57.2596 17.5884 56.9355L17.5589 52.9411L47.4166 52.7259C48.3591 55.0652 49.9611 57.2557 51.8141 58.5189L61.4576 65.0972C61.637 65.2196 61.8491 65.285 62.0662 65.285C62.2833 65.285 62.4953 65.2196 62.6747 65.0972L72.3183 58.5203C75.2863 56.4978 77.6114 52.1003 77.6114 48.5109V34.9763C77.6114 34.7745 77.5548 34.5767 77.4481 34.4053C77.3413 34.234 77.1887 34.096 77.0075 34.007ZM64.742 26.0345C66.0998 26.0228 67.2197 26.617 67.5243 27.5085C67.6144 27.7744 67.6907 28.0448 67.7526 28.3186L65.4627 28.3363L62.5422 26.9014C62.3941 26.8287 62.2314 26.791 62.0666 26.791C61.9017 26.791 61.739 26.8287 61.5909 26.9014L61.4379 26.9762L60.9287 26.0535C62.1626 26.0489 63.744 26.0419 64.742 26.0345ZM15.9149 21.1323C15.9257 21.1127 15.936 21.0927 15.9458 21.0725C16.8286 19.2172 18.7715 16.1108 21.8635 16.0887L49.6484 15.8926H49.6837C51.8429 15.8926 53.6116 17.3748 55.5839 20.8501L59.4965 27.9324L56.7 29.2996L55.4194 29.2698C54.9606 25.92 52.0825 23.2988 48.619 23.2988H48.5678C45.0821 23.4531 42.216 25.9955 41.8048 29.3676L11.202 29.6096L15.9149 21.1323ZM53.2334 29.2845L43.9911 29.3326C44.3905 27.157 46.2921 25.6141 48.5842 25.4598H48.6194C49.7109 25.4696 50.7658 25.8553 51.6062 26.552C52.4467 27.2486 53.0213 28.2136 53.2334 29.2845ZM3.71016 28.7886C3.76795 28.5145 3.84006 28.2436 3.92618 27.9771C4.21749 27.0811 5.32689 26.4723 6.6867 26.4624C7.68639 26.455 9.26593 26.4459 10.5017 26.4389L9.22489 28.7407L3.71016 28.7886ZM15.115 57.2508L10.878 57.2441H10.8762C10.7982 57.255 10.7191 57.236 10.6544 57.1911C10.6247 57.1662 10.6009 57.1351 10.5846 57.0999C10.5683 57.0648 10.56 57.0264 10.5603 56.9877L10.5309 52.9931L15.3995 52.9622L15.429 56.9709C15.4284 57.0104 15.4197 57.0494 15.4032 57.0854C15.3868 57.1214 15.3631 57.1535 15.3335 57.1798C15.304 57.2062 15.2693 57.226 15.2317 57.2383C15.1941 57.2505 15.1544 57.2547 15.115 57.2508ZM47.087 33.9819C46.9008 34.0696 46.7422 34.2069 46.6287 34.3787C46.5152 34.5505 46.4511 34.7502 46.4435 34.956V48.5109C46.4614 49.2175 46.5515 49.9203 46.7125 50.6084L9.06272 50.918H9.04992C8.59518 50.91 8.1616 50.7245 7.84189 50.401C7.52217 50.0776 7.3417 49.6419 7.33907 49.1871C7.33874 49.1363 7.33554 49.0856 7.3295 49.0352L5.60508 36.1658C5.61496 33.5375 7.39493 31.9072 9.19218 31.7828C9.24835 31.788 9.30484 31.7888 9.36113 31.7852H9.369L52.2219 31.4817L47.087 33.9819ZM75.4513 48.5109C75.4513 51.3625 73.4591 55.1303 71.101 56.7376L62.066 62.899L52.9923 56.737C50.6343 55.1292 48.6036 51.3619 48.6036 48.5109V35.6302L62.0274 29.0751L75.4513 35.6491V48.5109Z" fill="#8A1A10"/>
<path d="M51.3391 46.0389C51.3391 48.1605 51.9682 50.2344 53.1469 51.9984C54.3256 53.7624 56.0009 55.1373 57.961 55.9492C59.9211 56.7611 62.0779 56.9735 64.1587 56.5596C66.2395 56.1457 68.1508 55.1241 69.651 53.6239C71.1512 52.1237 72.1728 50.2124 72.5867 48.1316C73.0006 46.0508 72.7882 43.894 71.9763 41.9339C71.1644 39.9738 69.7895 38.2985 68.0255 37.1198C66.2615 35.9411 64.1876 35.312 62.066 35.312C59.222 35.3152 56.4955 36.4464 54.4845 38.4574C52.4735 40.4684 51.3423 43.1949 51.3391 46.0389ZM62.066 37.4722C63.7603 37.4722 65.4166 37.9746 66.8254 38.9159C68.2342 39.8572 69.3322 41.1952 69.9806 42.7605C70.629 44.3259 70.7986 46.0484 70.4681 47.7102C70.1375 49.3719 69.3216 50.8984 68.1236 52.0965C66.9255 53.2945 65.399 54.1104 63.7373 54.441C62.0755 54.7715 60.353 54.6019 58.7876 53.9535C57.2223 53.3051 55.8843 52.2071 54.943 50.7983C54.0017 49.3895 53.4993 47.7332 53.4993 46.0389C53.5018 43.7676 54.4052 41.5902 56.0112 39.9841C57.6173 38.3781 59.7947 37.4747 62.066 37.4722Z" fill="#8A1A10"/>
<path d="M59.879 49.4747C60.0728 49.6849 60.3419 49.8096 60.6275 49.8217C60.913 49.8338 61.1918 49.7321 61.4025 49.5391L67.3062 44.1318C67.5175 43.9383 67.6432 43.6688 67.6558 43.3825C67.6684 43.0963 67.5667 42.8169 67.3732 42.6056C67.1797 42.3943 66.9102 42.2686 66.624 42.256C66.3378 42.2435 66.0583 42.3451 65.8471 42.5386L60.7372 47.2191L58.3493 44.6298C58.154 44.4237 57.8854 44.3027 57.6017 44.2931C57.3179 44.2836 57.0417 44.3861 56.833 44.5786C56.6242 44.7711 56.4997 45.038 56.4863 45.3217C56.4729 45.6053 56.5718 45.8828 56.7614 46.0941L59.879 49.4747Z" fill="#8A1A10"/>
<path d="M13.1722 37.1855H13.1426C12.0877 37.1979 11.0806 37.6275 10.3416 38.3803C9.60262 39.1332 9.19182 40.148 9.19907 41.203C9.20367 42.2664 9.62949 43.2848 10.3833 44.0349C11.1216 44.7782 12.1234 45.2001 13.171 45.209H13.2018C15.3929 45.209 17.1614 43.3587 17.1452 41.1681C17.1376 40.1159 16.7169 39.1087 15.9737 38.3638C15.2305 37.6188 14.2244 37.1957 13.1722 37.1855ZM13.1852 43.0488H13.1716C12.6904 43.0417 12.2312 42.8464 11.8924 42.5046C11.5536 42.1629 11.3622 41.7019 11.3592 41.2207C11.3542 40.7324 11.5416 40.2618 11.8809 39.9106C12.0458 39.7365 12.2437 39.5969 12.463 39.4999C12.6823 39.403 12.9187 39.3505 13.1585 39.3457H13.1721C13.6631 39.344 14.1348 39.5374 14.4832 39.8834C14.8317 40.2294 15.0284 40.6996 15.0302 41.1907C15.0319 41.6818 14.8385 42.1534 14.4925 42.5019C14.1465 42.8503 13.6762 43.0471 13.1852 43.0488Z" fill="#8A1A10"/>
<path d="M44.063 46.289H44.055L27.6686 46.3835C27.5293 46.3781 27.3903 46.401 27.2601 46.4508C27.1298 46.5005 27.011 46.5761 26.9107 46.673C26.8105 46.7699 26.7308 46.886 26.6766 47.0145C26.6224 47.1429 26.5947 47.281 26.5952 47.4205C26.5958 47.5599 26.6245 47.6978 26.6797 47.8258C26.7349 47.9538 26.8154 48.0694 26.9164 48.1655C27.0174 48.2616 27.1368 48.3363 27.2675 48.385C27.3981 48.4338 27.5372 48.4556 27.6765 48.4492H27.6847L44.071 48.3626C44.2104 48.3672 44.3492 48.3436 44.4792 48.2933C44.6092 48.2429 44.7278 48.1669 44.8278 48.0698C44.9277 47.9726 45.0071 47.8563 45.0612 47.7277C45.1152 47.5992 45.1428 47.4611 45.1422 47.3217C45.1417 47.1823 45.113 47.0444 45.058 46.9163C45.003 46.7882 44.9227 46.6725 44.822 46.5761C44.7212 46.4797 44.6021 46.4046 44.4717 46.3553C44.3413 46.306 44.2023 46.2834 44.063 46.289Z" fill="#8A1A10"/>
<path d="M28.4326 42.4316H28.4407C29.0371 42.2773 29.5173 41.902 29.5128 41.3052L29.4932 38.6027C29.4925 38.3138 29.3793 38.0365 29.1778 37.8295C28.9762 37.6225 28.7019 37.5021 28.4131 37.4938H28.406C28.1175 37.4992 27.8429 37.6185 27.642 37.8257C27.4411 38.0329 27.3303 38.3111 27.3338 38.5996L27.3534 41.3123C27.3538 41.6022 27.4663 41.8806 27.6675 42.0893C27.8687 42.298 28.1429 42.4206 28.4326 42.4316Z" fill="#8A1A10"/>
<path d="M23.4758 37.4941H23.4686C23.1782 37.5037 22.9033 37.6269 22.7028 37.8371C22.5022 38.0473 22.3922 38.3277 22.3964 38.6182L22.4161 41.3218C22.4169 41.6108 22.53 41.8882 22.7315 42.0953C22.9331 42.3024 23.2073 42.423 23.4962 42.4316H23.5044C23.7931 42.4258 24.0677 42.306 24.2685 42.0985C24.4694 41.891 24.58 41.6125 24.5764 41.3238L24.5567 38.6122C24.5563 38.3221 24.4434 38.0436 24.2418 37.8351C24.0403 37.6265 23.7657 37.5043 23.4758 37.4941Z" fill="#8A1A10"/>
<path d="M33.37 42.2774H33.3782C33.5191 42.2791 33.6588 42.2527 33.7893 42.1997C33.9198 42.1467 34.0385 42.0683 34.1383 41.9689C34.2381 41.8695 34.3171 41.7513 34.3707 41.621C34.4242 41.4907 34.4513 41.3511 34.4503 41.2103L34.4307 38.5554C34.4281 38.2715 34.3129 38.0002 34.1104 37.8012C33.9078 37.6021 33.6345 37.4917 33.3506 37.4942H33.3435C33.2016 37.4948 33.0612 37.5235 32.9304 37.5786C32.7996 37.6337 32.6809 37.714 32.5813 37.8151C32.4817 37.9162 32.403 38.036 32.3498 38.1675C32.2966 38.2991 32.2699 38.4399 32.2713 38.5818L32.2909 41.2265C32.2924 41.3664 32.3215 41.5047 32.3766 41.6334C32.4317 41.7621 32.5117 41.8786 32.612 41.9763C32.7123 42.0739 32.8309 42.1508 32.961 42.2025C33.0911 42.2542 33.2301 42.2796 33.37 42.2774Z" fill="#8A1A10"/>
<path d="M38.3076 42.2775H38.3157C38.4575 42.2771 38.5979 42.2487 38.7286 42.1939C38.8594 42.139 38.978 42.0589 39.0777 41.958C39.1773 41.8571 39.256 41.7375 39.3093 41.606C39.3625 41.4746 39.3892 41.3339 39.3878 41.1921L39.3682 38.5464C39.3668 38.4063 39.3376 38.2679 39.2825 38.139C39.2273 38.0102 39.1473 37.8936 39.0469 37.7958C38.9465 37.698 38.8278 37.621 38.6976 37.5693C38.5674 37.5175 38.4282 37.4921 38.2881 37.4943H38.2801C38.1391 37.4929 37.9993 37.5195 37.8687 37.5728C37.7382 37.626 37.6196 37.7047 37.5198 37.8042C37.42 37.9038 37.341 38.0223 37.2875 38.1527C37.2339 38.2831 37.2069 38.4229 37.208 38.5639L37.2276 41.2178C37.2303 41.5015 37.3456 41.7725 37.5481 41.9713C37.7507 42.17 38.0238 42.2801 38.3076 42.2775Z" fill="#8A1A10"/>
<path d="M43.2449 42.2773H43.2531C43.5413 42.2724 43.8159 42.1536 44.0168 41.9468C44.2177 41.7401 44.3285 41.4622 44.3251 41.1739L44.3057 38.5371C44.304 38.3975 44.2747 38.2596 44.2194 38.1314C44.164 38.0031 44.0838 37.8872 43.9834 37.7902C43.8829 37.6931 43.7642 37.617 43.6341 37.5662C43.5041 37.5154 43.3652 37.4909 43.2256 37.4941H43.2176C43.0776 37.4906 42.9384 37.5153 42.8081 37.5667C42.6779 37.618 42.5592 37.695 42.4593 37.793C42.3593 37.891 42.28 38.0081 42.2261 38.1374C42.1722 38.2666 42.1448 38.4053 42.1455 38.5453L42.165 41.2082C42.1672 41.4929 42.2821 41.7651 42.4844 41.9654C42.6868 42.1658 42.9602 42.2779 43.2449 42.2773Z" fill="#8A1A10"/>
</svg>

<svg width="79" height="79" fill="none" xmlns="http://www.w3.org/2000/svg"><path d="M77.007 34.007l-7.476-3.672a1.078 1.078 0 00.557-1.006 10.404 10.404 0 00-.52-2.518c-.614-1.801-2.52-2.953-4.842-2.936-1.364.01-3.827.02-4.988.023l-2.27-4.103c-1.606-2.83-3.94-6.063-7.785-6.063h-.05l-27.786.196c-3.155.023-5.938 2.218-7.838 6.19l-2.306 4.157c-1.158.006-3.65.018-5.032.028-2.327.018-4.211 1.197-4.8 3.007a10.402 10.402 0 00-.481 2.526 1.143 1.143 0 00.655 1.078c.133.06.277.095.424.1h.01l3.313-.056c-1.449 1.199-2.363 3.102-2.347 5.294 0 .044.004.087.01.13L5.18 49.247a3.876 3.876 0 003.19 3.707l.03 4.07a2.373 2.373 0 00.738 1.706 2.423 2.423 0 001.736.673h.02l4.237.007a2.462 2.462 0 002.457-2.476l-.03-3.994 29.859-.215c.942 2.34 2.544 4.53 4.397 5.793l9.644 6.578a1.08 1.08 0 001.217 0l9.643-6.577c2.968-2.022 5.293-6.42 5.293-10.01V34.977a1.08 1.08 0 00-.604-.969zm-12.265-7.972c1.358-.012 2.478.582 2.782 1.474.09.265.167.536.229.81l-2.29.017-2.92-1.435a1.08 1.08 0 00-.952 0l-.153.075-.51-.922c1.235-.005 2.816-.012 3.814-.02zm-48.827-4.903l.03-.06c.884-1.855 2.826-4.961 5.918-4.983l27.785-.196h.036c2.159 0 3.928 1.482 5.9 4.957l3.912 7.082L56.7 29.3l-1.28-.03c-.46-3.35-3.337-5.971-6.801-5.971h-.051c-3.486.154-6.352 2.697-6.763 6.069l-30.603.242 4.713-8.478zm37.318 8.152l-9.242.049c.4-2.176 2.301-3.719 4.593-3.873h.035a4.747 4.747 0 014.614 3.825zM3.71 28.79a8.02 8.02 0 01.216-.812c.291-.896 1.4-1.505 2.76-1.515l3.816-.023-1.277 2.302-5.515.048zm11.405 28.46l-4.237-.007h-.002a.313.313 0 01-.222-.053.263.263 0 01-.094-.203l-.03-3.995 4.87-.03.029 4.008a.285.285 0 01-.314.28zm31.972-23.27a1.123 1.123 0 00-.644.975V48.51c.018.706.108 1.41.27 2.097l-37.65.31H9.05a1.741 1.741 0 01-1.71-1.73 1.551 1.551 0 00-.01-.153l-1.725-12.87c.01-2.627 1.79-4.258 3.587-4.382.056.005.113.006.17.002h.007l42.853-.303-5.135 2.5zm28.364 14.53c0 2.851-1.992 6.62-4.35 8.227l-9.035 6.161-9.074-6.162c-2.358-1.608-4.388-5.375-4.388-8.226V35.63l13.423-6.556 13.424 6.574V48.51z" fill="#8A1A10"/><path d="M51.34 46.039a10.727 10.727 0 1010.726-10.727 10.739 10.739 0 00-10.727 10.727zm10.726-8.567a8.567 8.567 0 11-8.567 8.567 8.576 8.576 0 018.567-8.567z" fill="#8A1A10"/><path d="M59.879 49.475a1.08 1.08 0 001.524.064l5.903-5.407a1.08 1.08 0 00-1.459-1.593l-5.11 4.68-2.388-2.59a1.08 1.08 0 00-1.588 1.465l3.118 3.38zm-46.707-12.29h-.03A3.99 3.99 0 009.2 41.203a4.02 4.02 0 001.184 2.832 3.977 3.977 0 002.788 1.174h.03c2.192 0 3.96-1.85 3.944-4.04a4.012 4.012 0 00-3.973-3.983zm.013 5.864h-.013a1.84 1.84 0 01-1.813-1.828 1.858 1.858 0 01.522-1.31 1.81 1.81 0 011.277-.565h.014a1.852 1.852 0 01.013 3.703zm30.878 3.24h-.008l-16.386.094a1.032 1.032 0 00-1.074 1.037 1.035 1.035 0 001.082 1.03h.008l16.386-.087a1.036 1.036 0 10-.008-2.074zm-15.63-3.857h.008c.596-.155 1.076-.53 1.072-1.127l-.02-2.702a1.112 1.112 0 00-1.08-1.11h-.007a1.093 1.093 0 00-1.072 1.107l.02 2.712a1.122 1.122 0 001.079 1.12zm-4.957-4.938h-.007a1.109 1.109 0 00-1.073 1.124l.02 2.704a1.114 1.114 0 001.08 1.11h.008a1.094 1.094 0 001.072-1.108l-.02-2.712a1.12 1.12 0 00-1.08-1.118zm9.894 4.783h.008a1.058 1.058 0 001.072-1.067l-.02-2.655a1.071 1.071 0 00-1.08-1.06h-.007a1.076 1.076 0 00-1.072 1.087l.02 2.645a1.063 1.063 0 001.079 1.05zm4.938.001h.008a1.076 1.076 0 001.072-1.086l-.02-2.646a1.063 1.063 0 00-1.08-1.052h-.008a1.06 1.06 0 00-1.072 1.07l.02 2.654a1.07 1.07 0 001.08 1.06zm4.937-.001h.008a1.09 1.09 0 001.072-1.103l-.02-2.637a1.057 1.057 0 00-1.08-1.043h-.007a1.045 1.045 0 00-1.073 1.051l.02 2.663a1.077 1.077 0 001.08 1.07z" fill="#8A1A10"/></svg>
